!!!COM: Clementi, Muzio
!!!CDT: 1752/01/23/-1832/03/10/
!!!ODT: ~1800///
!!!OTL: Sonata No. 5 in G Major, Op. 36, Mvmt. 2
!!!OPS: Op. 36
!!!ONM: No. 5
!!!OMV: 2. Allegro moderato
!!!ONB: Original Swiss Air
**kern	**kern	**dynam
*staff2	*staff1	*staff1/2
*Ipiano	*Ipiano	*Ipiano
*clefF4	*clefG2	*clefG2
*k[]	*k[]	*k[]
*C:	*C:	*C:
*M3/8	*M3/8	*M3/8
=1-	=1-	=1-
.	ccq/LL	.
.	ddq/JJ	.
8C\L	4ee\	.
8G\	.	.
8c\J	8dd\	.
=2	=2	=2
8C\L	4cc\	.
8G\	.	.
8c\J	8ee\	.
=3	=3	=3
8C\L	8dd''\L	.
8G\	(16dd\L	.
.	16b\	.
8c\J	16cc\	.
.	16ee\JJ)	.
=4	=4	=4
8C\L	8dd''\L	.
8G\	(16dd\L	.
.	16b\	.
8c\J	16cc\	.
.	16ee\JJ)	.
=5	=5	=5
8C\L	8dd''\L	.
8G\	(16dd\L	.
.	16b\	.
8c\J	16cc\	.
.	16ee\JJ)	.
=6	=6	=6
8GG\L	4.g/	.
16G\L	.	.
16F\	.	.
16E\	.	.
16D\JJ	.	.
=7	=7	=7
.	ccq/LL	.
.	ddq/JJ	.
8C\L	4ee\	.
8G\	.	.
8c\J	8dd\	.
=8	=8	=8
8C\L	4cc\	.
8G\	.	.
8c\J	8ee\	.
=9	=9	=9
8C\L	8dd\L	.
8G\	(16dd\L	.
.	16b\	.
8c\J	16cc\	.
.	16ee\JJ)	.
=10	=10	=10
8C\L	8dd\L	.
.	eeq/	.
8F\	16dd\L	.
.	16cc\	.
8B\J	16dd\	.
.	16ee\JJ	.
=11	=11	=11
8C\L	8dd\L	.
.	eeq/	.
8F\	16dd\L	.
.	16cc\	.
8B\J	16dd\	.
.	16ee\JJ	.
=12	=12	=12
8C\ 8c\L	4.cc\	.
8E\	.	.
8G\J	.	.
=13	=13	=13
.	ccq/LL	.
.	ddq/JJ	.
8C\L	4ee\	.
8G\	.	.
8c\J	8dd\	.
=14	=14	=14
8C\L	4cc\	.
8G\	.	.
8c\J	8ee\	.
=15	=15	=15
8C\L	8dd\L	.
8G\	16dd\L	.
.	16b\	.
8c\J	16cc\	.
.	16ee\JJ	.
=16	=16	=16
8C\L	8dd\L	.
8G\	16dd\L	.
.	16b\	.
8c\J	16cc\	.
.	16ee\JJ	.
=17	=17	=17
8C\L	8dd\L	.
8G\	(16dd\L	.
.	16b\	.
8c\J	16cc\	.
.	16ee\JJ)	.
=18	=18	=18
16GG\LL	4.g/	.
16G\	.	.
16AA\	.	.
16A\	.	.
16BB\	.	.
16B\JJ	.	.
=19	=19	=19
.	ccq/LL	.
.	ddq/JJ	.
8C\L	4ee\	f
8G\	.	.
8c\J	8dd\	.
=20	=20	=20
8C\L	4cc\	.
8G\	.	.
8c\J	8ee\	.
=21	=21	=21
8C\L	8dd\L	.
8G\	16dd\L	.
.	16b\	.
8c\J	16cc\	.
.	16ee\JJ	.
=22	=22	=22
8C\L	8dd\L	.
.	eeq/	.
8F\	16dd\L	.
.	16cc\	.
8B\J	16dd\	.
.	16ee\JJ	.
=23	=23	=23
8C\L	8dd\L	.
.	eeq/	.
8F\	16dd\L	.
.	16cc\	.
8B\J	16dd\	.
.	16ee\JJ	.
=24	=24	=24
8C\L	4.cc\	.
16E\L	.	.
16G\J	.	.
8c\J	.	.
*clefG2	*	*
=25	=25	=25
16c/LL	8cc\L	.
16g/	.	.
16e/	16cc\L	.
16g/	16dd\	.
16c/	16ee\	.
16g/JJ	16ff\JJ	.
=26	=26	=26
16c/LL	8gg\L	.
16g/	.	.
16e/	8ee\	.
16g/	.	.
16c/	8gg\J	.
16g/JJ	.	.
=27	=27	=27
16c/LL	8aa\L	.
16a/	.	.
16f/	8ff\	.
16a/	.	.
16c/	8aa\J	.
16a/JJ	.	.
=28	=28	=28
16c/LL	8gg\L	.
16g/	.	.
16e/	8ee\	.
16g/	.	.
16c/	8gg\J	.
16g/JJ	.	.
=29	=29	=29
16B/LL	8ff\L	.
16g/	.	.
16d/	8dd\	.
16g/	.	.
16B/	8ff\J	.
16g/JJ	.	.
=30	=30	=30
16c/LL	8ee\L	.
16g/	.	.
16e/	8cc\	.
16g/	.	.
16c/	8ee\J	.
16g/JJ	.	.
=31	=31	=31
16G/LL	8dd\L	.
16f/	.	.
.	eeq/	.
16B/	16dd\L	.
16f/	16cc\	.
16G/	16dd\	.
16f/JJ	16ee\JJ	.
=32	=32	=32
16c/LL	4.cc\	.
16g/	.	.
16e/	.	.
16g/	.	.
16c/	.	.
16g/JJ	.	.
=33	=33	=33
16c/LL	8cc\L	.
16g/	.	.
16e/	16cc\L	.
16g/	16dd\	.
16c/	16ee\	.
16g/JJ	16ff\JJ	.
=34	=34	=34
16c/LL	8gg\L	.
16g/	.	.
16e/	8ee\	.
16g/	.	.
16c/	8gg\J	.
16g/JJ	.	.
=35	=35	=35
16c/LL	8aa\L	.
16a/	.	.
16f/	8ff\	.
16a/	.	.
16c/	8aa\J	.
16a/JJ	.	.
=36	=36	=36
16c/LL	16aa\LL	.
16g/	16gg\J	.
16e/	8ee\	.
16g/	.	.
16c/	8gg\J	.
16g/JJ	.	.
=37	=37	=37
16B/LL	16gg\LL	.
16g/	16ff\J	.
16d/	8dd\	.
16g/	.	.
16B/	8ff\J	.
16g/JJ	.	.
=38	=38	=38
16c/LL	16ff\LL	.
16g/	16ee\J	.
16e/	8cc\	.
16g/	.	.
16c/	8ee\J	.
16g/JJ	.	.
=39	=39	=39
16G/LL	16ee\LL	.
16f/	16dd\JJ	.
.	eeq/	.
16B/	16dd\LL	.
16f/	16cc\	.
16G/	16dd\	.
16f/JJ	16ee\JJ	.
=40	=40	=40
16c/LL	4.cc\	.
16e/	.	.
16c/	.	.
16e/J	.	.
8c/J	.	.
*clefF4	*	*
=41	=41	=41
8r	(16gg\LL	p
.	16ff\J	.
8G\ 8d\L	8dd\)	.
8G\ 8d\J	8dd\J	.
=42	=42	=42
8r	(16ff\LL	.
.	16ee\J	.
8G\ 8c\ 8e\L	8cc\)	.
8G\ 8c\ 8e\J	8cc\J	.
=43	=43	=43
8r	16ee\LL	.
.	16dd\J	.
8G\ 8d\ 8f\L	8b\	.
8G\ 8d\ 8f\J	8b\J	.
=44	=44	=44
8r	32cc\LLL	.
.	32dd\	.
.	32cc\	.
.	32b\JJJ	.
8G\ 8c\ 8e\L	16cc\LL	.
.	16dd\	.
8G\ 8c\ 8e\J	16ee\	.
.	16ff\JJ	.
=45	=45	=45
8r	16gg\LL	.
.	16ff\J	.
8G\ 8B\ 8d\L	8dd\	.
8G\ 8B\ 8d\J	8dd\J	.
=46	=46	=46
8r	16ff\LL	.
.	16ee\J	.
8G\ 8c\ 8e\L	8cc\	.
8G\ 8c\ 8e\J	8cc\J	.
=47	=47	=47
8r	32cc\LLL	.
.	32dd\	.
.	32cc\	.
.	32b\J	.
8A\ 8c\ 8f#\L	16cc\	.
.	16dd\	.
8A\ 8c\ 8f#\J	16ee\	.
.	16ff#\JJ	.
=48	=48	=48
4.G;\ 4.d;\	4.b;\ 4.gg;\	.
=49	=49	=49
.	ccq/	.
8C\L	4ee\	.
8G\	.	.
8c\J	8dd\	.
=50	=50	=50
8C\L	(4cc\	.
8G\	.	.
8c\J	8ee\)	.
=51	=51	=51
8C\L	8dd'\L	.
8G\	(16dd\L	.
.	16b\	.
8c\J	16cc\	.
.	16ee\JJ)	.
=52	=52	=52
8C\L	8dd'\L	.
8G\	16dd\L	.
.	16b\	.
8c\J	16cc\	.
.	16ee\JJ	.
=53	=53	=53
8C\L	8dd\L	.
8G\	16dd\L	.
.	16b\	.
8c\J	16cc\	.
.	16ee\JJ	.
=54	=54	=54
8GG\L	4.g/	.
16G\L	.	.
16F\	.	.
16E\	.	.
16D\JJ	.	.
=55	=55	=55
.	ccq/LL	.
.	ddq/JJ	.
8C\L	4ee\	pp
8G\	.	.
8c\J	8dd\	.
=56	=56	=56
8C\L	4cc\	.
8G\	.	.
8c\J	8ee\	.
=57	=57	=57
8C\L	8dd\L	.
8G\	16dd\L	.
.	16b\	.
8c\J	16cc\	.
.	16ee\JJ	.
=58	=58	=58
8C\L	8dd\L	.
8F\	16dd\L	.
.	16cc\	.
8B\J	16dd\	.
.	16ee\JJ	.
=59	=59	=59
8C\L	8dd\L	.
8F\	16dd\L	.
.	16cc\	.
8B\J	16dd\	.
.	16ee\JJ	.
=60	=60	=60
16C\LL	4.cc\	<
16c\	.	.
16G\	.	.
16c\	.	.
16E\	.	.
16G\JJ	.	.
=61	=61	=61
.	cccq/LL	.
.	dddq/JJ	.
16C\LL	4eee\	f
16G\	.	.
16C\	.	.
16G\	.	.
16D\	8ddd\	.
16G\JJ	.	.
=62	=62	=62
16E\LL	4ccc\	.
16G\	.	.
16E\	.	.
16G\	.	.
.	cccq/LL	.
.	dddq/JJ	.
16C\	8eee\	.
16G\JJ	.	.
=63	=63	=63
16F\LL	8ddd\L	.
16G\	.	.
16F\	16ddd\L	.
16G\	16bb\	.
16E\	16ccc\	.
16G\JJ	16eee\JJ	.
=64	=64	=64
16F\LL	8ddd\L	.
16G\	.	.
16F\	16ddd\L	.
16G\	16bb\	.
16E\	16ccc\	.
16G\JJ	16eee\JJ	.
=65	=65	=65
16F\LL	8ddd\L	.
16G\	.	.
16F\	16ddd\L	.
16G\	16bb\	.
16E\	16ccc\	.
16G\JJ	16eee\JJ	.
=66	=66	=66
16GG\LL	4.gg\	.
16G\	.	.
16AA\	.	.
16G\	.	.
16BB\	.	.
16G\JJ	.	.
=67	=67	=67
.	cccq/LL	.
.	dddq/JJ	.
16C\LL	4eee\	.
16G\	.	.
16C\	.	.
16G\	.	.
16D\	8ddd\	.
16G\JJ	.	.
=68	=68	=68
16E\LL	4ccc\	.
16G\	.	.
16E\	.	.
16G\	.	.
.	cccq/LL	.
.	dddq/JJ	.
16C\	8eee\	.
16G\JJ	.	.
=69	=69	=69
16F\LL	8ddd\L	.
16G\	.	.
16F\	16ddd\L	.
16G\	16bb\	.
16E\	16ccc\	.
16G\JJ	16eee\JJ	.
=70	=70	=70
16GG/LL	8ddd\L	.
16F/	.	.
.	eeeq/	.
16BB/	16ddd\L	.
16F/	16ccc\	.
16GG/	16ddd\	.
16F/JJ	16eee\JJ	.
=71	=71	=71
16GG/LL	8ddd\L	.
16F/	.	.
.	eeeq/	.
16BB/	16ddd\L	.
16F/	16ccc\	.
16GG/	16ddd\	.
16F/JJ	16eee\JJ	.
=72	=72	=72
8C\ 8E\	8ccc\L	ff
.	dddq/	.
8r	16ccc\L	.
.	16bb\	.
8r	16ccc\	.
.	16eee\JJ	.
=73	=73	=73
8C\ 8E\	8gg\L	.
.	aaq/	.
8r	16gg\L	.
.	16ff#\	.
8r	16gg\	.
.	16ccc\JJ	.
=74	=74	=74
8C\ 8E\	8ee\L	.
.	ffq/	.
8r	16ee\L	.
.	16dd\	.
8r	16ee\	.
.	16gg\JJ	.
=75	=75	=75
8C\ 8E\L	8cc\L	.
8C\ 8E\	8cc\	.
8C\ 8E\J	8cc\J	.
=76	=76	=76
*^	*	*
16CC/LL	4CC\	4.cc\	.
16C/	.	.	.
16GG/	.	.	.
16C/	.	.	.
16GG/	8r	.	.
16C/JJ	.	.	.
*	*	*clefF4	*clefF4
=77	=77	=77	=77
.	.	cq/LL	.
.	.	dq/JJ	.
16CC/LL	4CC\	4e\	.
16C/	.	.	.
16GG/	.	.	.
16C/	.	.	.
16GG/	8r	8d\	.
16C/JJ	.	.	.
=78	=78	=78	=78
16CC/LL	4CC\	8c\L	.
16C/	.	.	.
16GG/	.	8G\	.
16C/	.	.	.
16GG/	8r	8G\J	.
16C/JJ	.	.	.
=79	=79	=79	=79
.	.	cq/LL	.
.	.	dq/JJ	.
16CC/LL	4CC\	4e\	.
16C/	.	.	.
16GG/	.	.	.
16C/	.	.	.
16GG/	8r	8d\	.
16C/JJ	.	.	.
=80	=80	=80	=80
16CC/LL	4CC\	8c\	.
16C/	.	.	.
16GG/	.	8r	.
16C/	.	.	.
16GG/	8r	8r	.
16C/JJ	.	.	.
*v	*v	*	*
=81	=81	=81
16CC/LL	8E\ 8G\	.
16C/	.	.
16GG/	8r	.
16C/	.	.
16GG/	8r	.
16C/JJ	.	.
=82	=82	=82
8CC/	8E\ 8c\	.
8r	8r	.
8r	8r	.
==	==	==
*-	*-	*-
!!!ENC: Craig Stuart Sapp
!!!END: 2004/11/26/
